Newaita/actions/32/color-picker.svg

<svg height="32" viewBox="0 0 32 32" width="32" xmlns="http://www.w3.org/2000/svg"><path d="m15.855469 4.226562c-.433594.007813-.835938.226563-1.074219.585938-1.3125 1.96875-3.148438 4.636719-4.675781 7.261719-1.523438 2.625-2.824219 5.089843-2.824219 7.359375h-.003906c0 4.765625 3.835937 8.601562 8.597656 8.601562 4.765625 0 8.601562-3.835937 8.601562-8.601562h-.007812c0-2.269532-1.296875-4.734375-2.824219-7.359375-1.523437-2.625-3.359375-5.292969-4.671875-7.261719-.25-.375-.671875-.59375-1.117187-.585938zm.019531 3.691407c1.144531 1.707031 2.394531 3.585937 3.492188 5.480469 1.453124 2.5 2.46875 4.996093 2.46875 6.035156h-.003907c0 3.300781-2.65625 5.953125-5.957031 5.953125-3.296875 0-5.953125-2.652344-5.953125-5.953125h-.003906c0-1.039063 1.015625-3.535156 2.464843-6.035156 1.101563-1.894532 2.347657-3.773438 3.492188-5.480469zm0 0" fill="#424242"/></svg>

<svg xmlns="http://www.w3.org/2000/svg" xmlns:xlink="http://www.w3.org/1999/xlink" width="32px" height="32px" viewBox="0 0 32 32" version="1.1">
<g id="surface1">
     <defs>
  <style id="current-color-scheme" type="text/css">
   .ColorScheme-Text { color:#424242; } .ColorScheme-Highlight { color:#eeeeee; }
  </style>
 </defs>
<path style="fill:currentColor" class="ColorScheme-Text" d="M 15.855469 4.226562 C 15.421875 4.234375 15.019531 4.453125 14.78125 4.8125 C 13.46875 6.78125 11.632812 9.449219 10.105469 12.074219 C 8.582031 14.699219 7.28125 17.164062 7.28125 19.433594 L 7.277344 19.433594 C 7.277344 24.199219 11.113281 28.035156 15.875 28.035156 C 20.640625 28.035156 24.476562 24.199219 24.476562 19.433594 L 24.46875 19.433594 C 24.46875 17.164062 23.171875 14.699219 21.644531 12.074219 C 20.121094 9.449219 18.285156 6.78125 16.972656 4.8125 C 16.722656 4.4375 16.300781 4.21875 15.855469 4.226562 Z M 15.875 7.917969 C 17.019531 9.625 18.269531 11.503906 19.367188 13.398438 C 20.820312 15.898438 21.835938 18.394531 21.835938 19.433594 L 21.832031 19.433594 C 21.832031 22.734375 19.175781 25.386719 15.875 25.386719 C 12.578125 25.386719 9.921875 22.734375 9.921875 19.433594 L 9.917969 19.433594 C 9.917969 18.394531 10.933594 15.898438 12.382812 13.398438 C 13.484375 11.503906 14.730469 9.625 15.875 7.917969 Z M 15.875 7.917969 "/>
</g>
</svg>
